svg/user-square.svg

<svg width="24" height="24" viewBox="0 0 24 24" fill="none" xmlns="http://www.w3.org/2000/svg">
<path d="M18.14 21.62C17.26 21.88 16.22 22 15 22H8.99998C7.77998 22 6.73999 21.88 5.85999 21.62C6.07999 19.02 8.74998 16.97 12 16.97C15.25 16.97 17.92 19.02 18.14 21.62Z" stroke="#292D32" stroke-width="1.5" stroke-linecap="round" stroke-linejoin="round"/>
<path d="M15 2H9C4 2 2 4 2 9V15C2 18.78 3.14 20.85 5.86 21.62C6.08 19.02 8.75 16.97 12 16.97C15.25 16.97 17.92 19.02 18.14 21.62C20.86 20.85 22 18.78 22 15V9C22 4 20 2 15 2ZM12 14.17C10.02 14.17 8.42 12.56 8.42 10.58C8.42 8.60002 10.02 7 12 7C13.98 7 15.58 8.60002 15.58 10.58C15.58 12.56 13.98 14.17 12 14.17Z" stroke="#292D32" stroke-width="1.5" stroke-linecap="round" stroke-linejoin="round"/>
<path d="M15.58 10.58C15.58 12.56 13.98 14.17 12 14.17C10.02 14.17 8.42004 12.56 8.42004 10.58C8.42004 8.60002 10.02 7 12 7C13.98 7 15.58 8.60002 15.58 10.58Z" stroke="#292D32" stroke-width="1.5" stroke-linecap="round" stroke-linejoin="round"/>
</svg>

<svg xmlns="http://www.w3.org/2000/svg" width="24" height="24" fill="none"><path stroke="#292D32" stroke-linecap="round" stroke-linejoin="round" stroke-width="1.5" d="M18.14 21.62c-.88.26-1.92.38-3.14.38H9c-1.22 0-2.26-.12-3.14-.38.22-2.6 2.89-4.65 6.14-4.65s5.92 2.05 6.14 4.65"/><path stroke="#292D32" stroke-linecap="round" stroke-linejoin="round" stroke-width="1.5" d="M15 2H9C4 2 2 4 2 9v6c0 3.78 1.14 5.85 3.86 6.62.22-2.6 2.89-4.65 6.14-4.65s5.92 2.05 6.14 4.65C20.86 20.85 22 18.78 22 15V9c0-5-2-7-7-7m-3 12.17c-1.98 0-3.58-1.61-3.58-3.59S10.02 7 12 7s3.58 1.6 3.58 3.58-1.6 3.59-3.58 3.59"/><path stroke="#292D32" stroke-linecap="round" stroke-linejoin="round" stroke-width="1.5" d="M15.58 10.58c0 1.98-1.6 3.59-3.58 3.59s-3.58-1.61-3.58-3.59S10.02 7 12 7s3.58 1.6 3.58 3.58"/></svg>
